X: 22
T: Lord Lovat's Lament
T: March, A
L: 1/16
M: C
K: A
A2B2| c4e4 d2c2B2A2| c1e3e3f1 e4f2g2| a4e2a2 f2e2c1A3| c2B2B2A2 B4A2B2|
 c4e4 d2c2B2A2| c1e3e3f1 e4c2A2| d3e1 (3f2e2d2 c1e3d3B1| A4A2B2 A4|| 
|: f2g2| a4e2a2 f2e2c2A2| c1e3e3f1 e4f2g2| a4e2a2 f2e2c1A3| c3B1B1A3 B4A2B2| 
c4e4 d2c2B2A2| c1e3e3f1 e4c1A3| d3e1 (3f2e2d2 c1e3d3B1| A4A2B2 A4:| 
D: The Beatons of Mabou, Rounder 7011
